img/icons/icon-mobile-app.svg

<svg width="244" height="266" viewBox="0 0 244 266" fill="none" xmlns="http://www.w3.org/2000/svg">
<path d="M222.626 1.44824H101.007C90.3621 1.44824 81.7323 10.078 81.7323 20.7233V245.015C81.7323 255.66 90.3621 264.29 101.007 264.29H222.626C233.272 264.29 241.901 255.66 241.901 245.015V20.7233C241.901 10.078 233.272 1.44824 222.626 1.44824Z" fill="white"/>
<path d="M242.75 34.8511H208.389V231.681H242.75V34.8511Z" fill="#EBEBEB"/>
<path d="M81.5407 48.3764V22.941C81.5407 20.1185 82.0966 17.3237 83.1767 14.7161C84.2568 12.1085 85.84 9.73914 87.8358 7.74335C89.8316 5.74756 92.2009 4.16441 94.8085 3.0843C97.4162 2.00419 100.211 1.44826 103.033 1.44826H221.367C224.19 1.44466 226.987 1.99812 229.596 3.07696C232.205 4.15579 234.576 5.7388 236.573 7.73531C238.569 9.73181 240.152 12.1026 241.231 14.7118C242.31 17.3211 242.863 20.1175 242.86 22.941V243.262C242.863 246.086 242.31 248.882 241.231 251.492C240.152 254.101 238.569 256.472 236.573 258.468C234.576 260.465 232.205 262.048 229.596 263.126C226.987 264.205 224.19 264.759 221.367 264.755H103.033C97.3332 264.755 91.8664 262.491 87.8358 258.46C83.8051 254.429 81.5407 248.963 81.5407 243.262V149.57" stroke="#007B64" stroke-width="2" stroke-miterlimit="10" stroke-linecap="round"/>
<path d="M115.984 34.8511H117.983H124.061H134.438H242.75" stroke="#007B64" stroke-width="2" stroke-linecap="round" stroke-linejoin="round"/>
<path d="M81.5407 34.8511H88.4129H99.2004" stroke="#007B64" stroke-width="2" stroke-linecap="round" stroke-linejoin="round"/>
<path d="M81.5407 231.681H242.75" stroke="#007B64" stroke-width="2" stroke-miterlimit="10"/>
<path d="M146.019 17.4104H178.272" stroke="#007B64" stroke-width="2" stroke-linecap="round" stroke-linejoin="round"/>
<path d="M162.145 255.172C165.85 255.172 168.853 252.169 168.853 248.464C168.853 244.76 165.85 241.756 162.145 241.756C158.441 241.756 155.437 244.76 155.437 248.464C155.437 252.169 158.441 255.172 162.145 255.172Z" fill="#007B64"/>
<path d="M123.951 183.986H107.825C104.861 183.986 102.458 186.389 102.458 189.352V205.479C102.458 208.443 104.861 210.845 107.825 210.845H123.951C126.915 210.845 129.318 208.443 129.318 205.479V189.352C129.318 186.389 126.915 183.986 123.951 183.986Z" fill="#FFB02A"/>
<path d="M170.222 183.986H154.096C151.132 183.986 148.73 186.389 148.73 189.352V205.479C148.73 208.443 151.132 210.845 154.096 210.845H170.222C173.186 210.845 175.589 208.443 175.589 205.479V189.352C175.589 186.389 173.186 183.986 170.222 183.986Z" fill="#FFB02A"/>
<path d="M216.466 183.986H200.34C197.376 183.986 194.973 186.389 194.973 189.352V205.479C194.973 208.443 197.376 210.845 200.34 210.845H216.466C219.43 210.845 221.832 208.443 221.832 205.479V189.352C221.832 186.389 219.43 183.986 216.466 183.986Z" fill="#FFB02A"/>
<path d="M82.2526 63.5171H13.1472C6.5241 63.5171 1.15503 68.8862 1.15503 75.5092V122.437C1.15503 129.06 6.5241 134.43 13.1472 134.43H82.2526C88.8756 134.43 94.2447 129.06 94.2447 122.437V75.5092C94.2447 68.8862 88.8756 63.5171 82.2526 63.5171Z" fill="white" stroke="#007B64" stroke-width="2" stroke-miterlimit="10"/>
<path d="M18.7873 84.5171H76.6124" stroke="#FFB02A" stroke-width="2" stroke-linecap="round" stroke-linejoin="round"/>
<path d="M18.7873 98.9734H76.6124" stroke="#FFB02A" stroke-width="2" stroke-linecap="round" stroke-linejoin="round"/>
<path d="M18.7873 113.43H76.6124" stroke="#FFB02A" stroke-width="2" stroke-linecap="round" stroke-linejoin="round"/>
</svg>

<svg width="244" height="266" fill="none" xmlns="http://www.w3.org/2000/svg"><path d="M222.626 1.448H101.007c-10.645 0-19.275 8.63-19.275 19.275v224.292c0 10.645 8.63 19.275 19.275 19.275h121.619c10.646 0 19.275-8.63 19.275-19.275V20.723c0-10.645-8.629-19.275-19.275-19.275z" fill="#fff"/><path d="M242.75 34.851h-34.361v196.83h34.361V34.851z" fill="#EBEBEB"/><path d="M81.54 48.376V22.941a21.493 21.493 0 0121.493-21.493h118.334a21.465 21.465 0 0121.493 21.493v220.321a21.479 21.479 0 01-6.287 15.206 21.455 21.455 0 01-15.206 6.287H103.033a21.49 21.49 0 01-21.492-21.493V149.57" stroke="#007B64" stroke-width="2" stroke-miterlimit="10" stroke-linecap="round"/><path d="M115.984 34.851H242.75m-161.21 0H99.2" stroke="#007B64" stroke-width="2" stroke-linecap="round" stroke-linejoin="round"/><path d="M81.54 231.681h161.21" stroke="#007B64" stroke-width="2" stroke-miterlimit="10"/><path d="M146.019 17.41h32.253" stroke="#007B64" stroke-width="2" stroke-linecap="round" stroke-linejoin="round"/><path d="M162.145 255.172a6.708 6.708 0 100-13.415 6.708 6.708 0 000 13.415z" fill="#007B64"/><path d="M123.951 183.986h-16.126a5.367 5.367 0 00-5.367 5.366v16.127a5.366 5.366 0 005.367 5.366h16.126a5.366 5.366 0 005.367-5.366v-16.127a5.367 5.367 0 00-5.367-5.366zm46.271 0h-16.126a5.366 5.366 0 00-5.366 5.366v16.127a5.365 5.365 0 005.366 5.366h16.126a5.366 5.366 0 005.367-5.366v-16.127a5.367 5.367 0 00-5.367-5.366zm46.244 0H200.34a5.367 5.367 0 00-5.367 5.366v16.127a5.366 5.366 0 005.367 5.366h16.126a5.365 5.365 0 005.366-5.366v-16.127a5.366 5.366 0 00-5.366-5.366z" fill="#FFB02A"/><path d="M82.253 63.517H13.147c-6.623 0-11.992 5.37-11.992 11.992v46.928c0 6.623 5.37 11.993 11.992 11.993h69.106c6.623 0 11.992-5.37 11.992-11.993V75.509c0-6.623-5.37-11.992-11.992-11.992z" fill="#fff" stroke="#007B64" stroke-width="2" stroke-miterlimit="10"/><path d="M18.787 84.517h57.825M18.787 98.973h57.825M18.787 113.43h57.825" stroke="#FFB02A" stroke-width="2" stroke-linecap="round" stroke-linejoin="round"/></svg>
